X:81
T:Charming Polly. JJo8.081, The
%%VWML:JohnsonVol8-2184-p41-0
F:http://www.vwml.org/record/JohnsonVol8/2184/p41
Z:Transcribed by Simon Furey and Lewis Jones
Z:vmp.Simon Wilson 2013 www.village-music-project.org.uk
Z:Dance added by John Chambers 2017
M:2/4
L:1/8
%Q:1/4=100
K:A
|:\
ae-ec | cA2c | Bd2B | BG2E |\
CEAc | DFBd | caec | A2A2 :|\
|:\
cecA | BdBG | Aaf^d | bgeB |
caf^d | bgeB | ce^df | e2E2 :|\
|:\
d2bd | GdEd | {d}c2ec | aecA |\
d2bd | GdEd | caec | A2A,2 :|
W: Cast off two Cu .|. Cast up two Cu .||.
W:Right hands across .||. back again Left
W:hands across :||: Cross over half figure
W:.||. Right and Left at Top :||:
W:
T:Lady Petersham's Will. JJo8.082
B:J.Johnson Choice Collection Vol 8 1758
Z:vmp.Simon Wilson 2013 www.village-music-project.org.uk
Z:Dance added by John Chambers 2017
M:2/4
L:1/8
%Q:1/4=120
N:Could easily be in 6/8.
K:C
|:\
c>c"^tr"G2 | A>A F>E | D>f f>e | (3dec (3BAG |\
c>c"^tr"G2 | A>A F>E | (3Dfe (3dcB | c2C2 :|
|:\
e>f (3g>ag | (3f>gf | (3e>de | e>f (3g>ag | {g}"^tr"f2e2 |\
e>f (3g>ag | (3f>gf (3e>de | d>c (3d>cB | c2C2 :|
W: Turn your Partner with the right
W:hand and cast off .|. turn your
W:Partner with the Left hand and cast
W:off below the 3d Cu. .||. Lead up
W:to the Top and cast off .||. Right
W:and Left at Top :||:
W:
